X:16
M:4/4
L:1/2
Q:1/4=120
K:F
V:1
[Acf][Bce]|[Acf][Acf]|[FBd][GBd]|[EGc]2|[EGB][EGc]|[FAc][GBd]|[Acf][Gce]|[FAc]2||
V:2
F,G,|A,F,|B,G,|C,2|C,B,,|A,,G,,|C,C,|F,2||
w:F:~I V4/3 I6 I IV ii V V7 V4/2 I6 ii cad6/4 V I

%%newpage


